src/lib/packages/icons/src/assets/filled/backward.svg

<svg width="24" height="24" viewBox="0 0 24 24" fill="none" xmlns="http://www.w3.org/2000/svg">
<path d="M21 7.96296V16.0372C21 17.6712 19.132 18.5872 17.856 17.5792L12.745 13.5421C12.254 13.1541 12.005 12.5871 12 12.0191V16.0372C12 17.6712 10.132 18.5872 8.85596 17.5792L3.74499 13.5421C2.75199 12.7571 2.75199 11.2421 3.74499 10.4571L8.85596 6.42097C10.132 5.41297 12 6.32996 12 7.96296V11.981C12.005 11.412 12.254 10.8451 12.745 10.4571L17.856 6.42097C19.133 5.41297 21 6.32896 21 7.96296Z" fill="currentColor"/>
</svg>

<svg xmlns="http://www.w3.org/2000/svg" width="24" height="24" fill="none"><path fill="currentColor" d="M21 7.963v8.074c0 1.634-1.868 2.55-3.144 1.542l-5.111-4.037A1.954 1.954 0 0 1 12 12.02v4.018c0 1.634-1.868 2.55-3.144 1.542l-5.111-4.037a1.97 1.97 0 0 1 0-3.085l5.111-4.036C10.132 5.413 12 6.33 12 7.963v4.018a1.954 1.954 0 0 1 .745-1.524l5.111-4.036C19.133 5.413 21 6.329 21 7.963Z"/></svg>
